static/B2C/tamtam.svg

<?xml version="1.0" encoding="UTF-8"?>
<svg width="26px" height="26px" viewBox="0 0 26 26" version="1.1" xmlns="http://www.w3.org/2000/svg" xmlns:xlink="http://www.w3.org/1999/xlink">
    <!-- Generator: Sketch 52.4 (67378) - http://www.bohemiancoding.com/sketch -->
    <title>tamtam</title>
    <desc>Created with Sketch.</desc>
    <g id="Plans" stroke="none" stroke-width="1" fill="none" fill-rule="evenodd">
        <g id="5-product-plans" transform="translate(-124.000000, -802.000000)" fill-rule="nonzero">
            <g id="soc" transform="translate(123.000000, 768.000000)">
                <g id="social_2" transform="translate(1.000000, 0.000000)">
                    <g id="tamtam" transform="translate(0.000000, 34.000000)">
                        <circle id="Oval" fill="#506CFB" cx="13" cy="13" r="13"></circle>
                        <path d="M12.7592593,19.1058986 C12.4074397,19.1058986 12.0623998,19.0766696 11.7264033,19.0204916 C11.131157,19.4328032 10.3569497,19.9537505 9.40378151,20.5833333 C9.40378151,19.8103096 9.40378151,18.9907415 9.40378151,18.124629 C7.65813701,17.0061962 6.5,15.0407655 6.5,12.8029493 C6.5,9.32192652 9.3023658,6.5 12.7592593,6.5 C16.2161527,6.5 19.0185185,9.32192652 19.0185185,12.8029493 C19.0185185,16.283972 16.2161527,19.1058986 12.7592593,19.1058986 Z M12.7592593,16.3251817 C14.3860326,16.3251817 15.7047931,14.9972174 15.7047931,13.3590879 C15.7047931,13.3780885 9.81372551,13.3588349 9.81372551,13.3590879 C9.81372551,14.9972174 11.1324859,16.3251817 12.7592593,16.3251817 Z" id="Shape" fill="#FFFFFF"></path>
                    </g>
                </g>
            </g>
        </g>
    </g>
</svg>

<svg width="26" height="26" xmlns="http://www.w3.org/2000/svg"><g fill-rule="nonzero" fill="none"><circle fill="#506CFB" cx="13" cy="13" r="13"/><path d="M12.76 19.106a6.26 6.26 0 0 1-1.034-.086c-.595.413-1.37.934-2.322 1.563v-2.458A6.309 6.309 0 0 1 6.5 12.803C6.5 9.322 9.302 6.5 12.76 6.5c3.456 0 6.259 2.822 6.259 6.303s-2.803 6.303-6.26 6.303zm0-2.78a2.956 2.956 0 0 0 2.945-2.967c0 .02-5.891 0-5.891 0a2.956 2.956 0 0 0 2.945 2.966z" fill="#FFF"/></g></svg>
